X: 341
T: weilao balujiun
L: 1/8
M: 2/4
K: G
d d/ d/ g e/ d/ [I:setbarnb 1]| 
c ed2 | 
g e/ d/ B B/ A/ | 
G ED2 | 
d d e d | 
G> BA2 | 
A E/ E/ G E | 
D4 |]

@@@ Tune index: 9215
